src/assets/icons/link-external.svg

<svg width="16" height="16" viewBox="0 0 16 16" fill="none" xmlns="http://www.w3.org/2000/svg">
<g clip-path="url(#clip0_8874_15291)">
<path fill-rule="evenodd" clip-rule="evenodd" d="M3.10837 0.0156465C2.76261 0.0865233 2.49592 0.332692 2.3945 0.674539C2.35712 0.800487 2.35652 1.02132 2.39314 1.16198C2.46802 1.44947 2.7165 1.70714 3.00474 1.79623C3.11946 1.83168 3.20294 1.83229 7.99782 1.83229H12.8742L6.51095 8.19762C0.43818 14.2723 0.145035 14.5686 0.0900184 14.6861C-0.0759483 15.0408 -0.00362134 15.4499 0.274195 15.7277C0.550213 16.0037 0.961982 16.0758 1.31611 15.9101C1.4318 15.856 1.75552 15.5356 7.8032 9.48987L14.1685 3.12659V8.00299C14.1685 12.7979 14.1691 12.8814 14.2046 12.9961C14.3215 13.3744 14.6781 13.6359 15.0772 13.6359C15.4736 13.6359 15.8087 13.4002 15.9537 13.0195L15.9951 12.9108L16.0005 6.88049C16.0044 2.45646 16.0004 0.820845 15.9851 0.740037C15.9197 0.392555 15.6215 0.089387 15.2737 0.016858C15.1572 -0.00741011 3.22668 -0.00860327 3.10837 0.0156465Z" fill="currentColor"/>
</g>
<defs>
<clipPath id="clip0_8874_15291">
<rect width="16" height="16" fill="white"/>
</clipPath>
</defs>
</svg>

<svg xmlns="http://www.w3.org/2000/svg" width="16" height="16" fill="none">
  <g clip-path="url(#a)">
    <path fill="currentColor" fill-rule="evenodd" d="M3.108.016a.93.93 0 0 0-.714.659 1.083 1.083 0 0 0 0 .487.943.943 0 0 0 .61.634c.115.036.199.036 4.994.036h4.876L6.511 8.198C.438 14.272.145 14.568.09 14.686a.913.913 0 0 0 .184 1.042.916.916 0 0 0 1.042.182c.116-.054.44-.374 6.487-6.42l6.365-6.363v4.876c0 4.795.001 4.878.037 4.993.117.378.473.64.872.64a.925.925 0 0 0 .877-.616l.041-.11L16 6.88c.004-4.424 0-6.06-.015-6.14a.944.944 0 0 0-.711-.723C15.157-.007 3.227-.01 3.108.016Z" clip-rule="evenodd"/>
  </g>
  <defs>
    <clipPath id="a">
      <path fill="#fff" d="M0 0h16v16H0z"/>
    </clipPath>
  </defs>
</svg>
